svgs/regular/comment-sms.svg

<svg xmlns="http://www.w3.org/2000/svg" viewBox="0 0 512 512"><!--! Font Awesome Pro 6.0.0-alpha3 by @fontawesome - https://fontawesome.com License - https://fontawesome.com/license (Commercial License) --><path d="M302.1 185.1c-5.623-1.793-11.93 .0547-15.54 4.863L256 230.7L225.4 189.9c-3.613-4.809-9.889-6.684-15.54-4.863C204.2 186.1 200.4 192.3 200.4 198.3v83.46c0 7.689 6.223 13.91 13.91 13.91c7.689 0 13.91-6.221 13.91-13.91V239.1l16.68 22.25c5.271 7.01 17.01 7.01 22.28 0l16.68-22.25v41.73c0 7.689 6.221 13.91 13.91 13.91s13.91-6.221 13.91-13.91V198.3C311.6 192.3 307.8 186.1 302.1 185.1zM141.6 226.6C132.2 223.9 123.1 221.9 124 216.1C124.7 213.1 132.1 211.3 142.7 212.7c3.613 .5703 7.607 1.82 11.38 3.125C161.4 218.4 169.3 214.5 171.8 207.2c2.498-7.254-1.359-15.19-8.613-17.69C157.8 187.7 152.1 186 147 185.2C120.3 181 100.1 191.9 96.58 212.3C91.66 240.1 119.6 249.2 130.2 252.3c11.93 3.432 22.27 5.59 21.35 10.73C150.8 266.9 142.7 268.8 132.8 267.3C127.3 266.4 120.7 263.8 114.6 261.7C107.3 259.1 100.7 263.3 98.13 270.5C95.54 277.8 100.5 286.2 107.8 288.8c6.357 2.309 13.58 4.916 20.76 6.004c3.775 .5977 7.443 .8691 10.95 .8691c21.11 0 36.46-10.46 39.45-27.93C183.1 238.7 156.4 230.8 141.6 226.6zM378.1 226.6c-9.385-2.68-18.47-4.719-17.58-9.617c.6797-3.912 8.967-5.705 18.69-4.266c3.613 .5703 7.607 1.82 11.38 3.125c7.309 2.527 15.19-1.357 17.69-8.611c2.5-7.254-1.357-15.19-8.611-17.69c-5.354-1.848-11.03-3.531-16.17-4.32c-26.73-4.184-46.92 6.711-50.42 27.03c-4.918 28.72 23.04 36.92 33.58 39.99c11.93 3.432 22.27 5.59 21.35 10.73c-.6777 3.967-8.803 5.787-18.75 4.293c-5.514-.8594-12.08-3.426-18.15-5.598c-7.279-2.58-13.91 1.631-16.49 8.857s2.406 15.52 9.633 18.13c6.357 2.309 13.6 5.018 20.77 6.105c3.777 .5977 7.445 .8691 10.95 .8691c21.11 0 36.46-10.46 39.45-27.93C420.4 238.7 392.9 230.8 378.1 226.6zM256 32C114.7 32 .0137 125.1 .0137 240c0 47.63 19.9 91.25 52.89 126.3c-14.87 39.5-45.87 72.88-46.37 73.25c-6.623 7-8.374 17.25-4.624 26C5.782 474.3 14.35 480 23.97 480c61.49 0 109.1-25.75 139.1-46.25C191.1 442.8 223.3 448 256 448C397.4 448 512 354.9 512 240S397.4 32 256 32zM256 400c-26.75 0-53.12-4.125-78.36-12.12l-22.75-7.125L135.4 394.5c-14.25 10.12-33.87 21.38-57.49 29c7.373-12.12 14.37-25.75 19.87-40.25l10.62-28l-20.62-21.88C69.81 314.1 48.06 282.3 48.06 240c0-88.25 93.24-160 207.1-160c114.7 0 207.1 71.75 207.1 160S370.8 400 256 400z"/></svg>

<svg xmlns="http://www.w3.org/2000/svg" viewBox="0 0 512 512"><!-- Font Awesome Pro 6.0.0-alpha2 by @fontawesome - https://fontawesome.com License - https://fontawesome.com/license (Commercial License) --><path d="M302.131 185.064C296.508 183.271 290.205 185.119 286.592 189.928L256 230.734L225.408 189.928C221.795 185.119 215.519 183.244 209.869 185.064C204.191 186.967 200.359 192.291 200.359 198.268V281.729C200.359 289.418 206.582 295.639 214.269 295.639C221.959 295.639 228.18 289.418 228.18 281.729V239.998L244.861 262.248C250.133 269.258 261.869 269.258 267.139 262.248L283.82 239.998V281.729C283.82 289.418 290.041 295.639 297.73 295.639S311.64 289.418 311.64 281.729V198.268C311.64 192.291 307.81 186.967 302.131 185.064ZM141.596 226.604C132.211 223.924 123.127 221.885 124.017 216.986C124.697 213.074 132.955 211.281 142.709 212.721C146.322 213.291 150.316 214.541 154.092 215.846C161.373 218.373 169.279 214.488 171.779 207.234C174.277 199.98 170.42 192.047 163.166 189.547C157.814 187.699 152.137 186.016 147.002 185.227C120.322 181.043 100.109 191.938 96.578 212.26C91.66 240.977 119.615 249.182 130.158 252.252C142.084 255.684 152.426 257.842 151.512 262.982C150.832 266.949 142.681 268.77 132.765 267.275C127.252 266.416 120.683 263.85 114.617 261.678C107.336 259.098 100.707 263.309 98.127 270.535C95.545 277.762 100.545 286.156 107.771 288.766C114.129 291.074 121.355 293.682 128.527 294.77C132.303 295.367 135.971 295.639 139.476 295.639C160.586 295.639 175.935 285.18 178.924 267.709C183.951 238.721 156.402 230.842 141.596 226.604ZM378.066 226.604C368.681 223.924 359.599 221.885 360.488 216.986C361.168 213.074 369.455 211.281 379.18 212.721C382.793 213.291 386.787 214.541 390.564 215.846C397.873 218.373 405.752 214.488 408.25 207.234C410.75 199.98 406.892 192.047 399.639 189.547C394.285 187.699 388.607 186.016 383.472 185.227C356.74 181.043 336.555 191.937 333.049 212.26C328.131 240.977 356.088 249.182 366.629 252.252C378.556 255.684 388.898 257.842 387.982 262.982C387.305 266.949 379.18 268.77 369.236 267.275C363.723 266.416 357.156 263.85 351.088 261.678C343.808 259.098 337.178 263.309 334.598 270.535S337.015 286.156 344.242 288.766C350.599 291.074 357.826 293.682 364.998 294.77C368.775 295.367 372.443 295.639 375.947 295.639C397.056 295.639 412.406 285.18 415.396 267.709C420.422 238.721 392.873 230.842 378.066 226.604ZM256.033 32C114.678 32 0.068 125.125 0.068 240C0.068 287.625 19.941 331.25 52.935 366.25C38.062 405.75 7.066 439.125 6.566 439.5C-0.057 446.5 -1.807 456.75 1.943 465.5C5.816 474.25 14.441 480 24.064 480C85.556 480 134.051 454.25 163.172 433.75C192.043 442.75 223.289 448 256.033 448C397.39 448 512 354.875 512 240S397.39 32 256.033 32ZM256.033 400C229.287 400 202.916 395.875 177.67 387.875L154.922 380.75L135.426 394.5C121.178 404.625 101.555 415.875 77.933 423.5C85.306 411.375 92.306 397.75 97.805 383.25L108.428 355.25L87.806 333.375C69.808 314.125 48.062 282.25 48.062 240C48.062 151.75 141.299 80 256.033 80C370.769 80 464.006 151.75 464.006 240S370.769 400 256.033 400Z"/></svg>
